app/client/src/assets/icons/blueprintjs/16px/one-to-many.svg

<svg width="16" height="16" viewBox="0 0 16 16" fill="none" xmlns="http://www.w3.org/2000/svg">
<path fill-rule="evenodd" clip-rule="evenodd" d="M14 3C14 3.55228 13.5523 4 13 4C12.4477 4 12 3.55228 12 3C12 2.44772 12.4477 2 13 2C13.5523 2 14 2.44772 14 3ZM10.274 4.25424C10.7489 5.28473 11.7909 6 13 6C14.6569 6 16 4.65685 16 3C16 1.34315 14.6569 0 13 0C11.6146 0 10.4486 0.939058 10.1036 2.21537C9.93589 2.25873 9.76494 2.31081 9.59392 2.37338C8.51786 2.76706 7.35722 3.61487 7.01942 5.30389C6.85783 6.11182 6.35499 6.51404 5.72603 6.74577C5.25112 5.71528 4.20909 5 3 5C1.34315 5 0 6.34315 0 8C0 9.65685 1.34315 11 3 11C4.20909 11 5.25112 10.2847 5.72603 9.25423C6.35499 9.48596 6.85783 9.88818 7.01942 10.6961C7.35722 12.3851 8.51786 13.2329 9.59392 13.6266C9.76494 13.6892 9.93589 13.7413 10.1037 13.7846C10.4486 15.0609 11.6146 16 13 16C14.6569 16 16 14.6569 16 13C16 11.3431 14.6569 10 13 10C11.7909 10 10.7489 10.7153 10.274 11.7458C9.64502 11.514 9.14217 11.1118 8.98058 10.3039C8.76538 9.22788 8.21625 8.49328 7.56778 8C8.21625 7.50672 8.76538 6.77212 8.98058 5.69612C9.14217 4.88818 9.64501 4.48597 10.274 4.25424ZM13 14C12.4477 14 12 13.5523 12 13C12 12.4477 12.4477 12 13 12C13.5523 12 14 12.4477 14 13C14 13.5523 13.5523 14 13 14ZM4 8C4 7.44772 3.55228 7 3 7C2.44772 7 2 7.44772 2 8C2 8.55229 2.44772 9 3 9C3.55228 9 4 8.55229 4 8Z" fill="black"/>
</svg>

<svg xmlns="http://www.w3.org/2000/svg" width="16" height="16"><path fill-rule="evenodd" d="M14 3a1 1 0 1 1-2 0 1 1 0 0 1 2 0Zm-3.726 1.254a3 3 0 1 0-.17-2.039 5.467 5.467 0 0 0-.51.158c-1.076.394-2.237 1.242-2.575 2.93-.161.809-.664 1.211-1.293 1.443a3 3 0 1 0 0 2.508c.629.232 1.132.634 1.293 1.442.338 1.69 1.499 2.537 2.575 2.93.17.063.342.115.51.159a3.001 3.001 0 1 0 .17-2.04c-.629-.231-1.132-.633-1.293-1.441C8.765 9.228 8.216 8.494 7.568 8c.648-.493 1.197-1.228 1.413-2.304.161-.808.664-1.21 1.293-1.442ZM13 14a1 1 0 1 1 0-2 1 1 0 0 1 0 2ZM4 8a1 1 0 1 0-2 0 1 1 0 0 0 2 0Z" clip-rule="evenodd"/></svg>
